X:1
T:Quick Step [44]
M:2/4
L:1/8
R:March
B:Stephen Grier music manuscript collection (Book 3, c. 1883, No. 77, p. 33)
B: http://grier.itma.ie/book-three#?c=0&m=0&s=0&cv=32&z=93.6121%2C768.4848%2C2547.0769%2C1290.4289
N:Stephen Grier (c. 1824-1894) was a piper and fiddler from
N:Newpark, Bohey, Gortletteragh, south Co. Leitrim.
Z:AK/Fiddler’s Companion
K:Bb
d|FE/F/ Fd|Bcfg|gfdB|agc c/d/|eA/B/ cG/F/|EFGd|ff/e/ fe/c/|BBB:||
fd/f/ ba|gfdf|fe/d/ eg|gcc d/e/|fd/f/ ba|gfdf|df e/f/g|bgfd|
FE/F/ Fd|Bcfg|gfdB|agc c/d/|eA/B/ cG/F/|EFBd|ff/e/ fe/c/ |BBB||
Bcdf|Bcdf|bfed|geeF|Bcdf |Bcdf|gfed|cBcd|
FE/F/ Fd|Bcfg|agc c/d/|eA/B/ cG/F/|EFBd|ff/e/ fe/c/ |BBB||

